ix/book_bold.svg

<svg viewBox="0 0 24 24" fill="none" xmlns="http://www.w3.org/2000/svg" height="1em" width="1em">
  <path d="M20.5 16v2.5c0 1.93-1.57 3.5-3.5 3.5H7c-1.93 0-3.5-1.57-3.5-3.5v-.65C3.5 16.28 4.78 15 6.35 15H19.5c.55 0 1 .45 1 1Zm-5-14h-7c-4 0-5 1-5 5v7.58c.76-.67 1.76-1.08 2.85-1.08H19.5c.55 0 1-.45 1-1V7c0-4-1-5-5-5ZM13 10.75H8c-.41 0-.75-.34-.75-.75s.34-.75.75-.75h5c.41 0 .75.34.75.75s-.34.75-.75.75Zm3-3.5H8c-.41 0-.75-.34-.75-.75s.34-.75.75-.75h8c.41 0 .75.34.75.75s-.34.75-.75.75Z" fill="#292D32"/>
</svg>

<svg viewBox="0 0 24 24" fill="none" xmlns="http://www.w3.org/2000/svg" height="1em" width="1em">
  <path d="M20.5 16V18.5C20.5 20.43 18.93 22 17 22H7C5.07 22 3.5 20.43 3.5 18.5V17.85C3.5 16.28 4.78 15 6.35 15H19.5C20.05 15 20.5 15.45 20.5 16Z" fill="#292D32"/>
  <path d="M15.5 2H8.5C4.5 2 3.5 3 3.5 7V14.58C4.26 13.91 5.26 13.5 6.35 13.5H19.5C20.05 13.5 20.5 13.05 20.5 12.5V7C20.5 3 19.5 2 15.5 2ZM13 10.75H8C7.59 10.75 7.25 10.41 7.25 10C7.25 9.59 7.59 9.25 8 9.25H13C13.41 9.25 13.75 9.59 13.75 10C13.75 10.41 13.41 10.75 13 10.75ZM16 7.25H8C7.59 7.25 7.25 6.91 7.25 6.5C7.25 6.09 7.59 5.75 8 5.75H16C16.41 5.75 16.75 6.09 16.75 6.5C16.75 6.91 16.41 7.25 16 7.25Z" fill="#292D32"/>
</svg>
